16x16/actions/region.svg

<svg viewBox="0 0 16 16" xmlns="http://www.w3.org/2000/svg"><path d="m2 2v3h1v-2h2v-1zm9 0v1h2v2h1v-3zm-7 2v3h3v-3zm5 0v3h3v-3zm-5 5v3h3v-3zm5 0v3h3v-3zm-7 2v3h3v-1h-2v-2zm11 0v2h-2v1h3v-3z" fill="#8b9cbe"/></svg>

<svg viewBox="0 0 16 16" xmlns="http://www.w3.org/2000/svg">
    <path d="M2 2v3h1V3h2V2zm9 0v1h2v2h1V2zM4 4v3h3V4zm5 0v3h3V4zM4 9v3h3V9zm5 0v3h3V9zm-7 2v3h3v-1H3v-2zm11 0v2h-2v1h3v-3z" fill="#f4f4f7"/>
</svg>
